X:1
T:The Cradle
T:The Cradle
T:From the Solo Piano Album FOREST
T:Larry Young arranged by George Winston 
T:Public Domain
T:Public Domain
T:Public Domain
C:Larry Young arranged by George Winston
Z:Public Domain
%%score { ( 1 4 ) | ( 2 3 ) }
L:1/8
Q:1/4=130
M:4/4
K:Bb
V:1 treble nm="Piano" snm="Pno."
V:4 treble 
V:2 bass 
V:3 bass 
V:1
 z3 D GABc | d3 e f3 g | d4- dedc | d3 d d4 | z2 z D GABc | d2 ef- f2 g2 | f4- fedc | d3 d d2 c2 | %8
 z2 z d- d4- | d6 =B2 | [GB]3 d- d4- | d8 | [CE^FB]3 [CEFB]- [CEFB]4 | %13
 [CE^FB]3 [CEFB]- [CEFB]C- [CEFB]2 | [A,DA]3 [A,DA]- [A,DA]3 A, | [A,DA]3 [A,DA]- [A,DA]4 | %16
 dcBA GcAF- | F8 | F4- FDFD- | [D^F]8 | ^F3 G- G2 A2 | B3 D GABc | d3 e f3 g | d4- dedc | %24
 d3 d [Ad]4 | z3 D GABc | d2 ef- f g2 f- | f4- f_edc | d3 d d2 c2 | [G=B-]3 [GBd]- [GBd]4- | %30
 [GBd]6 [G=B]2 | [FB]3 [FBd]- [FBd]4- | [FBd]4- [FBd]d d/e/d | d-[d-e]d- G- [Gd]4 | [Ad]8 | %35
 [A,DA]3 [A,DA]- [A,DA]3 A, | [A,DA]3 [A,DA]- [A,DA]4 | dcBA GcAF- | F8- | F6 FD- | [D^F-]6 FD | %41
 ^F3 G- G2 A2 || B3 D GABc | d2 ef- f2 g2 | d4- de (3d/e/d/c | d3 d [Ad]4 | z2 z D GABc | %47
 d2 ef- f2 g2 | f4- fedc | [Ad]3 d d2 c2 | z2 z d- d4- | [=Bd]6 B2 | [GB]3 [GBd]- [GBd]4- | %53
 [GBd]4- [GBd]d d/e/d | d<e dd/e/- ed d/e/d | d<e- ed !fermata![Ad]4 || %56
 [A,DA]3 [A,DA]- [A,DA]2- (3:2:2[A,DA]2 A, | [A,DA]3 [A,D]- [A,D] [A,D]3 | dcBA Gc-[Ac]-[FAc]- | %59
 [F-Ac]8 | F4- FDFD- | [D^F]8- | [DF]4- [DF]D A2 | d8- | d8- | !fermata!d8 |] %66
V:2
!ped! G,DG z z2 z2!ped-up! |!ped!!8va(! CB e2!ped-up!!ped! DA c2!8va)!!ped-up! | %2
!ped! z2[K:treble] DB- BD B2!ped-up! |[K:bass]!ped! A,,G, C2!ped-up!!ped! D,^F, C2!ped-up! | %4
!ped! G,DG z z4!ped-up! |!ped! C,B,EF,-!ped-up!!ped! F,A, E2!ped-up! | %6
!ped! B,,2 F,D- DF, D2!ped-up! |!ped! A,,G, C2!ped-up!!ped! D,^F, C2!ped-up! | %8
!ped! G,2 DG- G2 D2!ped-up! |!ped! G,2 DG-!ped-up!!ped! GD G2!ped-up! | %10
!ped! E,2 B,E- E2 B,2!ped-up! |!ped! E,2 B,E-!ped-up!!ped! E2 B,2!ped-up! | %12
!ped! D,,2 A,,^F,- F,2 A,,2!ped-up! |!ped! D,,2 A,,^F,-!ped-up!!ped! F,2 A,,2!ped-up! | %14
!ped! G,,2 D,B,- B,2 D,B,!ped-up! |!ped! G,,2 D,B,-!ped-up!!ped! B,2 D,2!ped-up! | %16
!ped! C,B, E2 F,A, E2!ped-up! |!ped! B,,2 F,D-!ped-up!!ped! D2 F,2!ped-up! | %18
!ped! B,,2 F,D- D F,2 A,!ped-up! |!ped! D,2 A,D-!ped-up!!ped! DA,A,D!ped-up! | %20
!ped! C,3 E,- E,2 ^F,2!ped-up! |!ped! G,,D, B,6!ped-up! | %22
!ped! C,B, E2!ped-up!!ped! D,A, C2!ped-up! |!ped! G,,2 D,B,- B,2 z2!ped-up! | %24
!ped! A,,G, C2!ped-up!!ped! D,^F, C2!ped-up! |!ped! G,,D, G,6!ped-up! | %26
!ped! C,B,EF,-!ped-up!!ped! F, A,2 B,,-!ped-up! |!ped! B,,3 F,- F, D3!ped-up! | %28
!ped! A,,G, C2!ped-up!!ped! D,^F, C2!ped-up! |!ped! G,2 DG- G2 D2!ped-up! | %30
!ped! G,2 DG-!ped-up!!ped! G2 D2!ped-up! |!ped! E,2 B,E- E4!ped-up! |!ped! E,2 B,E- E4!ped-up! | %33
!ped! G,,2 G,C- C3 C!ped-up! |!ped! D,2 ^F,C-!ped-up!!ped! C2 ^F,A,!ped-up! | %35
!ped! G,,2 D,B,- B,2 D,B,!ped-up! |!ped! G,,2 D,B,-!ped-up!!ped! B,2 D,2!ped-up! | %37
!ped! C,B, E2 F,A, E2!ped-up! |!ped! B,,2 F,D-!ped-up!!ped! DF,DF,!ped-up! | %39
!ped! B,,2 F,D- DF, D2!ped-up! |!ped! D,,2 A,,^F,-!ped-up!!ped! F,2 A,,^F,!ped-up! | %41
!ped! D,,A,,^F,=E,, D,G,^F,,D,!ped-up! ||!ped! G,,D, B,6!ped-up! |!ped! C,B,ED,- D,C F2!ped-up! | %44
!ped! G,,2 D,B,- B,2 z2!ped-up! |!ped! A,,G, C2!ped-up!!ped! D,^F, C2!ped-up! | %46
!ped! G,,D, B,6!ped-up! |!ped! C,B,EF,-!ped-up!!ped! F,A, E2!ped-up! |!ped! z2 F,D- D F,3!ped-up! | %49
!ped! A,,G, C2!ped-up!!ped! D,^F, C2!ped-up! |!ped! G,2 DG- G2 D2!ped-up! | %51
!ped! G,2 DG-!ped-up!!ped! GD G2!ped-up! |!ped! E,2 B,E- E4!ped-up! | %53
!ped! E,2 B,E-!ped-up!!ped! EB, G2!ped-up! |!ped! A,,2 G,C- C G,3!ped-up! | %55
!ped! D,2 ^F,C- !fermata!C4!ped-up! ||!ped! G,,2 D,B,- B,2- (3:2:2B,2 B,!ped-up! | %57
!ped! z2 D,B,-!ped-up!!ped! B,D,B,D,!ped-up! |!ped! C,B,EB, F,A, E2!ped-up! | %59
!ped! z2 F,D-!ped-up!!ped! DF,DF,!ped-up! |!ped! B,,2 F,D- D F,3!ped-up! | %61
!ped! D,2 A,D-!ped-up!!ped! DA,DA,!ped-up! |!ped! D,2 A,D- D4!ped-up! | %63
!ped! D,2 A,D-!ped-up!!ped! DA,DA,!ped-up! |!ped! D8- | !fermata![A,D]8!ped-up! |] %66
V:3
 x8 |!8va(! x8!8va)! | G,8[K:treble] |[K:bass] x8 | x8 | x8 | x8 | x8 | x8 | x8 | x8 | x8 | x8 | %13
 x8 | x8 | x8 | x8 | x8 | x8 | x8 | x8 | x8 | x8 | x8 | x8 | x8 | x8 | x8 | x8 | x8 | x8 | x8 | %32
 x8 | x8 | x8 | x8 | x8 | x8 | x8 | x8 | x8 | x8 || x8 | x8 | x8 | x8 | x8 | x8 | x8 | x8 | x8 | %51
 x8 | x8 | x8 | x8 | x8 || x8 | x8 | x8 | x8 | x8 | x8 | x8 | x8 | z4 A,4- | x8 |] %66
V:4
 x8 | x8 | x8 | x8 | x8 | x8 | x8 | x4 A4 | =B8- | B6 x2 | x8 | x8 | x8 | x8 | x8 | x8 | x8 | x8 | %18
 x8 | x8 | z2 D2- D D3 | x8 | x8 | x8 | x8 | x8 | x8 | x8 | x4 A4 | x8 | x8 | x8 | x8 | G3 x5 | %34
 x8 | x8 | x8 | x8 | x8 | x8 | x8 | x8 || x8 | x8 | x8 | x8 | x8 | x8 | x8 | x4 A4 | =B8- | x8 | %52
 x8 | x8 | G2 GG- GG G2 | A3 A- x4 || x8 | x8 | x8 | x8 | x8 | x8 | x8 | x8 | x8 | x8 |] %66

